X:1
T:Forked Deer
L:1/8
M:2/2
I:linebreak $
K:D
V:1 treble nm="Voice" snm="Voice"
V:1
 A2 |"D" defg a2 f2 | gfge fdec | defg a2 f2 | geed cB A2 |$ cefg a2 f2 | gebe a2 ee | dBAF GBAG |1 %8
 FDEF D2 :|2 FDEF D4 |:$ A4 cABc | ABAG F2 E2 | A4 cABc | ABcA d4 |$ A4 cABc | ABAG F2 E2 | %16
 D2 ED FDGD |1 FDEF D4 :|2 FDEF D2 |] %19
